X:781
T:Reel 781
M:4/4
K:Gmaj
L:1/8
ge|d>G (3GGG dcBc|d>G (3GGG G2ge|d>G (3GGG dcBc| (3ABA =fd c2:|BA|Ggge dedB|Ggge d2BA|Ggge dedB| (3ABA =fd c2BA|Ggge dedB|Ggge d2ef|gefd ecdB| (3ABA =fd c2|dc'|bgaf gfed|BGBd g2eg|faaf abc'd'| (3bc'd' af gfde| (3BAB dB eBdB| (3GGG ge f2ag|feed ecdB|ABcd e2|
